src/images/git.svg

<svg fill="none" height="20" viewBox="0 0 20 20" width="20" xmlns="http://www.w3.org/2000/svg"><path clip-rule="evenodd" d="m10 0c-5.52486 0-10 4.58772-10 10.2516 0 4.531 2.86679 8.3699 6.83855 9.7292.49724.0944.6814-.2203.6814-.4972 0-.2454-.00614-.8873-.01228-1.7432-2.78084.6168-3.37016-1.3719-3.37016-1.3719-.45427-1.1831-1.11111-1.504-1.11111-1.504-.90854-.6357.06752-.6231.06752-.6231 1.00062.0755 1.53469 1.0573 1.53469 1.0573.89011 1.567 2.33885 1.1139 2.90976.8496.09208-.6608.3499-1.1139.63229-1.372-2.21609-.2517-4.54881-1.1327-4.54881-5.05966 0-1.12018.38674-2.03269 1.03131-2.75011-.10436-.26431-.44813-1.30268.09208-2.71235 0 0 .84101-.2769 2.75016 1.05096.79803-.22656 1.65132-.33983 2.5046-.34613.8471.0063 1.7066.11957 2.5046.34613 1.9091-1.32786 2.7502-1.05096 2.7502-1.05096.5463 1.40967.2025 2.45433.0982 2.71235.6384.71742 1.0251 1.62993 1.0251 2.75011 0 3.93956-2.3388 4.80166-4.5672 5.05966.3561.3147.6814.944.6814 1.9006 0 1.3719-.0123 2.4732-.0123 2.813 0 .2769.1781.5916.6876.4909 3.9717-1.3593 6.8324-5.1982 6.8324-9.7229 0-5.67018-4.4751-10.2579-10-10.2579z" fill="#fff" fill-rule="evenodd"/></svg>

<svg width="20" height="20" viewBox="0 0 20 20" fill="none" xmlns="http://www.w3.org/2000/svg">
<path fill-rule="evenodd" clip-rule="evenodd" d="M10 0C4.47514 0 0 4.58772 0 10.2516C0 14.7826 2.86679 18.6215 6.83855 19.9808C7.33579 20.0752 7.51995 19.7605 7.51995 19.4836C7.51995 19.2382 7.51381 18.5963 7.50767 17.7404C4.72683 18.3572 4.13751 16.3685 4.13751 16.3685C3.68324 15.1854 3.0264 14.8645 3.0264 14.8645C2.11786 14.2288 3.09392 14.2414 3.09392 14.2414C4.09454 14.3169 4.62861 15.2987 4.62861 15.2987C5.51872 16.8657 6.96746 16.4126 7.53837 16.1483C7.63045 15.4875 7.88827 15.0344 8.17066 14.7763C5.95457 14.5246 3.62185 13.6436 3.62185 9.71664C3.62185 8.59646 4.00859 7.68395 4.65316 6.96653C4.5488 6.70222 4.20503 5.66385 4.74524 4.25418C4.74524 4.25418 5.58625 3.97728 7.4954 5.30514C8.29343 5.07858 9.14672 4.96531 10 4.95901C10.8471 4.96531 11.7066 5.07858 12.5046 5.30514C14.4137 3.97728 15.2548 4.25418 15.2548 4.25418C15.8011 5.66385 15.4573 6.70851 15.353 6.96653C15.9914 7.68395 16.3781 8.59646 16.3781 9.71664C16.3781 13.6562 14.0393 14.5183 11.8109 14.7763C12.167 15.091 12.4923 15.7203 12.4923 16.6769C12.4923 18.0488 12.48 19.1501 12.48 19.4899C12.48 19.7668 12.6581 20.0815 13.1676 19.9808C17.1393 18.6215 20 14.7826 20 10.2579C20 4.58772 15.5249 0 10 0Z" fill="white"/>
</svg>
